assets/icons/trowel.svg

<?xml version="1.0" encoding="UTF-8" standalone="no"?>
<svg
   viewBox="0 0 24 24"
   height="24"
   width="24"
   version="1.1"
   id="svg8"
   sodipodi:docname="trowel.svg"
   inkscape:version="1.2 (1:1.2.1+202207142221+cd75a1ee6d)"
   xmlns:inkscape="http://www.inkscape.org/namespaces/inkscape"
   xmlns:sodipodi="http://sodipodi.sourceforge.net/DTD/sodipodi-0.dtd"
   xmlns="http://www.w3.org/2000/svg"
   xmlns:svg="http://www.w3.org/2000/svg">
  <defs
     id="defs12" />
  <sodipodi:namedview
     id="namedview10"
     pagecolor="#ffffff"
     bordercolor="#666666"
     borderopacity="1.0"
     inkscape:pageshadow="2"
     inkscape:pageopacity="0.0"
     inkscape:pagecheckerboard="0"
     showgrid="true"
     inkscape:zoom="19.79899"
     inkscape:cx="5.4295699"
     inkscape:cy="0.85862966"
     inkscape:window-width="1920"
     inkscape:window-height="1043"
     inkscape:window-x="0"
     inkscape:window-y="0"
     inkscape:window-maximized="1"
     inkscape:current-layer="svg8"
     inkscape:showpageshadow="2"
     inkscape:deskcolor="#d1d1d1">
    <inkscape:grid
       type="xygrid"
       id="grid829" />
    <inkscape:grid
       type="xygrid"
       id="grid552"
       dotted="true"
       spacingx="0.5"
       spacingy="0.5"
       empspacing="10" />
  </sodipodi:namedview>
  <path
     id="path664"
     style="fill:#808080;stroke:none;stroke-width:1px;stroke-linecap:butt;stroke-linejoin:miter"
     d="M 19.333984 2.0097656 A 1.5 1.5 0 0 0 18.441406 2.4394531 L 13.939453 6.9414062 A 1.5 1.5 0 0 0 13.535156 8.2832031 C 13.167531 8.4699594 13.004088 8.7281515 13.009766 8.9882812 C 13.000653 10.710485 12.632799 11.323749 11.902344 11.328125 C 9.8539103 11.029264 8.2234871 11.825554 7.5 12.5 C 5.948335 13.946488 2.5 21.5 2.5 21.5 C 2.5 21.5 14.000001 16.999999 15 16 C 15.392026 15.607974 16.398562 14.293749 15.369141 13.021484 C 15.000251 12.500557 14.499924 12.000381 14.5 10.513672 C 14.499939 9.7012427 14.516743 9.4875324 14.765625 9.4765625 A 1.5 1.5 0 0 0 14.947266 9.4921875 C 14.9632 9.4946654 14.979004 9.4970557 14.996094 9.5 L 14.996094 9.4921875 A 1.5 1.5 0 0 0 16.060547 9.0625 L 20.5625 4.5605469 A 1.5 1.5 0 0 0 20.5625 2.4394531 A 1.5 1.5 0 0 0 19.333984 2.0097656 z " />
</svg>

<svg height="24" width="24" xmlns="http://www.w3.org/2000/svg"><path style="fill:gray;stroke:none;stroke-width:1px;stroke-linecap:butt;stroke-linejoin:miter" d="M19.334 2.01a1.5 1.5 0 0 0-.893.43l-4.501 4.5a1.5 1.5 0 0 0-.404 1.342c-.367.187-.53.445-.525.705-.01 1.722-.377 2.336-1.108 2.34-2.048-.299-3.679.498-4.402 1.172-1.552 1.446-5 9-5 9S14 17 15 16c.392-.392 1.399-1.706.37-2.979-.37-.52-.87-1.02-.87-2.507 0-.813.017-1.026.266-1.037a1.5 1.5 0 0 0 .181.015l.05.008v-.008a1.5 1.5 0 0 0 1.064-.43l4.502-4.501a1.5 1.5 0 0 0 0-2.122 1.5 1.5 0 0 0-1.229-.43z"/></svg>
